X: 30086
T: Oíche Nollag
R: jig
M: 6/8
K: Dmajor
|:g|"D" f2A d2f|"A" e2d B2g|"D" f2A d2f|"G"g3 a2g|
"D"f2A d2f|"A" e2d B2c|"D" d2A "G" B2G|"A" E3 "D" D2:|
f|"D" a2b a2f|"D"d2c d2f|"Em" g2f e2d|"G" ~B3 A3||
"D" a2b a2f|"D"d3- d2f|"Em" e2d c2e|"A" a3 f2g|
"D" a2^g a2f|"D" d3 e2f|"Em" g2f e2d|"G" B3 A2F|
"D" A2B A2F|"G" d2f g2b|"A" a2f e2f|"D" d3- d2||

